images/Framer.svg

<svg fill="none" height="39" viewBox="0 0 40 39" width="40" xmlns="http://www.w3.org/2000/svg" xmlns:xlink="http://www.w3.org/1999/xlink"><clipPath id="a"><path d="m0 0h40v39h-40z"/></clipPath><g clip-path="url(#a)"><path d="m39.8558 30.7867-2.3234-6.6968c1.1195-2.2673 1.7117-4.7893 1.7156-7.3267.007-4.4117-1.7164-8.58344-4.8523-11.74612-3.1367-3.16346-7.3172-4.9440669-11.7703-5.01371253-4.6172-.07196707-8.9578 1.66762253-12.2203 4.89918253-3.14692 3.11703-4.89223 7.22535-4.94692 11.61615-3.10156 2.3122-4.932032 5.9183-4.925782 9.7689.003125 1.8023.4125 3.5945 1.188282 5.2142l-1.6 4.6128c-.275.7932-.074219 1.6537.524218 2.2465.421872.4178.976562.6399 1.548442.6399.23984 0 .48281-.0394.72031-.1199l4.65703-1.5856c1.63515.7692 3.44372 1.1747 5.26332 1.1778h.0195c3.9461-.0008 7.614-1.8603 9.9406-5.0075 2.4211-.0627 4.8156-.6431 6.9813-1.6924l6.7617 2.3014c.2812.0959.5703.1424.8562.1424.6781 0 1.3383-.2639 1.8391-.76.7109-.7049.95-1.7279.6234-2.6705zm-27.0023 5.3279h-.0156c-1.6102-.0023-3.20941-.3954-4.62504-1.1375-.29062-.1517-.63203-.1788-.94296-.0728l-4.77578 1.6259 1.6414-4.7305c.10625-.308.07969-.6462-.07422-.934-.74843-1.4022-1.14531-2.9863-1.14765-4.5812-.00391-2.566 1.0039-4.9982 2.76562-6.8191.57578 3.4754 2.24844 6.6783 4.84063 9.2002 2.5734 2.5042 5.8078 4.0975 9.2976 4.6191-1.8429 1.7992-4.3265 2.8299-6.964 2.8299zm24.6953-4.325c-.068.0666-.1484.0851-.2383.0542l-7.2383-2.4631c-.1257-.0434-.2562-.0643-.3867-.0643-.1922 0-.3836.0457-.557.137-2.0664 1.0826-4.4016 1.6568-6.7539 1.6607h-.0219c-7.8805 0-14.38905-6.3401-14.51405-14.1435-.0625-3.9304 1.44687-7.62389 4.24995-10.40043 2.8032-2.77653 6.5321-4.27082 10.4993-4.20891 7.8859.12381 14.2914 6.58305 14.2789 14.39804-.0032 2.3301-.5828 4.6431-1.6766 6.6899-.1539.2878-.1805.626-.0734.9348l2.4875 7.1696c.0304.089.0117.1687-.0555.236z" fill="#fff"/><path d="m19.8179 33.2836c-1.8429 1.7992-4.3265 2.8299-6.964 2.8299h-.0156c-1.6102-.0023-3.20942-.3954-4.62504-1.1375-.29063-.1517-.63203-.1788-.94297-.0728l-4.77578 1.6259 1.6414-4.7305c.10625-.308.07969-.6462-.07422-.934-.74843-1.4022-1.14531-2.9863-1.14765-4.5812-.00391-2.566 1.0039-4.9982 2.76562-6.819.57578 3.4753 2.24844 6.6782 4.84064 9.2001 2.5734 2.5042 5.8078 4.0975 9.2976 4.6191z" fill="#f5bf2f"/></g></svg>

<svg width="40" height="39" viewBox="0 0 40 39" fill="none" xmlns="http://www.w3.org/2000/svg">
<g clip-path="url(#clip0)">
<path d="M39.8558 30.7867L37.5324 24.0899C38.6519 21.8226 39.2441 19.3006 39.248 16.7632C39.255 12.3515 37.5316 8.17976 34.3957 5.01708C31.259 1.85362 27.0785 0.0730131 22.6254 0.00336747C18.0082 -0.0685996 13.6676 1.67099 10.4051 4.90255C7.25818 8.01958 5.51287 12.1279 5.45818 16.5187C2.35662 18.8309 0.526148 22.437 0.532398 26.2876C0.535523 28.0899 0.944898 29.8821 1.72068 31.5018L0.12068 36.1146C-0.15432 36.9078 0.046461 37.7683 0.644898 38.3611C1.06677 38.7789 1.62146 39.001 2.19334 39.001C2.43318 39.001 2.67615 38.9616 2.91365 38.8811L7.57068 37.2955C9.20583 38.0647 11.0144 38.4702 12.834 38.4733H12.8535C16.7996 38.4725 20.4675 36.613 22.7941 33.4658C25.2152 33.4031 27.6097 32.8227 29.7754 31.7734L36.5371 34.0748C36.8183 34.1707 37.1074 34.2172 37.3933 34.2172C38.0714 34.2172 38.7316 33.9533 39.2324 33.4572C39.9433 32.7523 40.1824 31.7293 39.8558 30.7867ZM12.8535 36.1146H12.8379C11.2277 36.1123 9.62849 35.7192 8.21286 34.9771C7.92224 34.8254 7.58083 34.7983 7.2699 34.9043L2.49412 36.5302L4.13552 31.7997C4.24177 31.4917 4.21521 31.1535 4.0613 30.8657C3.31287 29.4635 2.91599 27.8794 2.91365 26.2845C2.90974 23.7185 3.91755 21.2863 5.67927 19.4654C6.25505 22.9408 7.92771 26.1437 10.5199 28.6656C13.0933 31.1698 16.3277 32.7631 19.8175 33.2847C17.9746 35.0839 15.491 36.1146 12.8535 36.1146ZM37.5488 31.7896C37.4808 31.8562 37.4004 31.8747 37.3105 31.8438L30.0722 29.3807C29.9465 29.3373 29.816 29.3164 29.6855 29.3164C29.4933 29.3164 29.3019 29.3621 29.1285 29.4534C27.0621 30.536 24.7269 31.1102 22.3746 31.1141H22.3527C14.4722 31.1141 7.96365 24.774 7.83865 16.9706C7.77615 13.0402 9.28552 9.34671 12.0886 6.57017C14.8918 3.79364 18.6207 2.29935 22.5879 2.36126C30.4738 2.48507 36.8793 8.94431 36.8668 16.7593C36.8636 19.0894 36.284 21.4024 35.1902 23.4492C35.0363 23.737 35.0097 24.0752 35.1168 24.384L37.6043 31.5536C37.6347 31.6426 37.616 31.7223 37.5488 31.7896Z" fill="white"/>
<path d="M19.8179 33.2836C17.975 35.0828 15.4914 36.1135 12.8539 36.1135H12.8383C11.2281 36.1112 9.62888 35.7181 8.21326 34.976C7.92263 34.8243 7.58123 34.7972 7.27029 34.9032L2.49451 36.5291L4.13591 31.7986C4.24216 31.4906 4.2156 31.1524 4.06169 30.8646C3.31326 29.4624 2.91638 27.8783 2.91404 26.2834C2.91013 23.7174 3.91794 21.2852 5.67966 19.4644C6.25544 22.9397 7.9281 26.1426 10.5203 28.6645C13.0937 31.1687 16.3281 32.762 19.8179 33.2836Z" fill="#F5BF2F"/>
</g>
<defs>
<clipPath id="clip0">
<rect width="40" height="39" fill="white"/>
</clipPath>
</defs>
</svg>
